X: 41
T:Peppers Black
M:6/8
L:1/8
Q:100
R:Jig
K:D
c2A e2e|c>BA e2A|ded e> fg/2a/2|f3 d3||
efg g>ag|efg g>fg|f2g a> bg/2a/2|f3 d2d||

